X: 54
M: C
L: 1/8
K: D
va(ufef) dcde | fdad fd-df | gfed caAa | Bged cAfg |
afef dcde | fdad fddB | GABg fdec | d2dd d2fg |
afef dcde | fdad fd-df | gfed caAa | Bged cAGE |


